packages/ui-icons/svg/Line/text.svg

<svg viewBox="0 0 1920 1920" version="1.1" xmlns="http://www.w3.org/2000/svg">
    <path d="M247 0L1673.28571 0 1673.28571 501.942857 1470.31429 501.942857 1470.31429 202.971429 1072.6 202.971429 1072.6 1717.02857 1374.31429 1717.02857 1374.31429 1920 543.228571 1920 543.228571 1717.02857 844.942857 1717.02857 844.942857 202.971429 449.971429 202.971429 449.971429 501.942857 247 501.942857z" stroke="none" stroke-width="1" fill-rule="evenodd"/>
</svg>

<svg viewBox="0 0 1920 1920" xmlns="http://www.w3.org/2000/svg">
    <path d="M247 0h1426.286v501.943h-202.972V202.97H1072.6v1514.06h301.714V1920H543.23v-202.971h301.714V202.97H449.97v298.972H247z" fill-rule="evenodd"/>
</svg>
